icons/papirus/48x48/apps/ms-excel.svg

<?xml version="1.0" encoding="UTF-8" standalone="no"?>
<!-- Created with Inkscape (http://www.inkscape.org/) -->

<svg
   xmlns:dc="http://purl.org/dc/elements/1.1/"
   xmlns:cc="http://creativecommons.org/ns#"
   xmlns:rdf="http://www.w3.org/1999/02/22-rdf-syntax-ns#"
   xmlns:svg="http://www.w3.org/2000/svg"
   xmlns="http://www.w3.org/2000/svg"
   xmlns:sodipodi="http://sodipodi.sourceforge.net/DTD/sodipodi-0.dtd"
   xmlns:inkscape="http://www.inkscape.org/namespaces/inkscape"
   width="48"
   height="48"
   viewBox="0 0 48 48.000001"
   id="svg4355"
   version="1.1"
   inkscape:version="0.91 r"
   sodipodi:docname="ms-excel.svg">
  <defs
     id="defs4357" />
  <sodipodi:namedview
     id="base"
     pagecolor="#ffffff"
     bordercolor="#666666"
     borderopacity="1.0"
     inkscape:pageopacity="0.0"
     inkscape:pageshadow="2"
     inkscape:zoom="0.35"
     inkscape:cx="-225"
     inkscape:cy="520"
     inkscape:document-units="px"
     inkscape:current-layer="layer1"
     showgrid="false"
     units="px"
     inkscape:window-width="1600"
     inkscape:window-height="842"
     inkscape:window-x="-4"
     inkscape:window-y="32"
     inkscape:window-maximized="1" />
  <metadata
     id="metadata4360">
    <rdf:RDF>
      <cc:Work
         rdf:about="">
        <dc:format>image/svg+xml</dc:format>
        <dc:type
           rdf:resource="http://purl.org/dc/dcmitype/StillImage" />
        <dc:title></dc:title>
      </cc:Work>
    </rdf:RDF>
  </metadata>
  <g
     inkscape:label="Layer 1"
     inkscape:groupmode="layer"
     id="layer1"
     transform="translate(0,-1004.3622)">
    <g
       transform="translate(0,1004.3622)"
       id="g4347">
      <rect
         style="fill:#7ec242;fill-opacity:1"
         x="-44"
         y="-44"
         width="40"
         height="40"
         transform="matrix(0,-1,-1,0,0,0)"
         rx="2"
         ry="2"
         id="rect4203-1" />
      <path
         style="opacity:0.2;fill:#ffffff"
         inkscape:connector-curvature="0"
         d="M 6,4 C 4.892,4 4,4.892 4,6 L 4,7 C 4,5.892 4.892,5 6,5 l 36,0 c 1.108,0 2,0.892 2,2 L 44,6 C 44,4.892 43.108,4 42,4 L 6,4 Z"
         id="rect4592" />
      <path
         style="opacity:0.3"
         inkscape:connector-curvature="0"
         d="M 6,44 C 4.892,44 4,43.108 4,42 l 0,-1 c 0,1.108 0.892,2 2,2 l 36,0 c 1.108,0 2,-0.892 2,-2 l 0,1 c 0,1.108 -0.892,2 -2,2 L 6,44 Z"
         id="path4597" />
      <path
         inkscape:connector-curvature="0"
         id="path4389"
         d="m 13.896484,11.937915 a 2.0002,2.0002 0 0 0 -1.357422,3.365234 l 8.779297,9.666016 -8.779297,9.666016 A 2.0002,2.0002 0 1 0 15.5,37.324634 l 8.519531,-9.38086 8.519531,9.38086 A 2.0002,2.0002 0 1 0 35.5,34.635181 L 26.720703,24.969165 35.5,15.303149 a 2.0002,2.0002 0 0 0 -1.417969,-3.365234 2.0002,2.0002 0 0 0 -1.542969,0.675781 L 24.019531,21.994556 15.5,12.613696 a 2.0002,2.0002 0 0 0 -1.404297,-0.675781 2.0002,2.0002 0 0 0 -0.199219,0 z"
         style="color:#000000;font-style:normal;font-variant:normal;font-weight:normal;font-stretch:normal;font-size:medium;line-height:normal;font-family:sans-serif;text-indent:0;text-align:start;text-decoration:none;text-decoration-line:none;text-decoration-style:solid;text-decoration-color:#000000;letter-spacing:normal;word-spacing:normal;text-transform:none;direction:ltr;block-progression:tb;writing-mode:lr-tb;baseline-shift:baseline;text-anchor:start;white-space:normal;clip-rule:nonzero;display:inline;overflow:visible;visibility:visible;opacity:0.2;isolation:auto;mix-blend-mode:normal;color-interpolation:sRGB;color-interpolation-filters:linearRGB;solid-color:#000000;solid-opacity:1;fill:#000000;fill-opacity:1;fill-rule:evenodd;stroke:none;stroke-width:4;stroke-linecap:round;stroke-linejoin:round;stroke-miterlimit:4;stroke-dasharray:none;stroke-dashoffset:0;stroke-opacity:1;color-rendering:auto;image-rendering:auto;shape-rendering:auto;text-rendering:auto;enable-background:accumulate" />
      <path
         sodipodi:nodetypes="cc"
         inkscape:connector-curvature="0"
         id="path4375"
         d="m 14.019216,12.957318 20,22.021544"
         style="fill:none;fill-rule:evenodd;stroke:#ffffff;stroke-width:4;stroke-linecap:round;stroke-linejoin:round;stroke-miterlimit:4;stroke-dasharray:none;stroke-opacity:1" />
      <path
         style="fill:none;fill-rule:evenodd;stroke:#ffffff;stroke-width:4;stroke-linecap:round;stroke-linejoin:round;stroke-miterlimit:4;stroke-dasharray:none;stroke-opacity:1"
         d="m 34.019216,12.957318 -20,22.021544"
         id="path4377"
         inkscape:connector-curvature="0"
         sodipodi:nodetypes="cc" />
    </g>
  </g>
</svg>

<?xml version="1.0" encoding="UTF-8" standalone="no"?>
<!-- Created with Inkscape (http://www.inkscape.org/) -->
<svg id="svg4355" xmlns:rdf="http://www.w3.org/1999/02/22-rdf-syntax-ns#" xmlns="http://www.w3.org/2000/svg" height="48" width="48" version="1.1" xmlns:cc="http://creativecommons.org/ns#" xmlns:dc="http://purl.org/dc/elements/1.1/" viewBox="0 0 48 48.000001">
 <metadata id="metadata4360">
  <rdf:RDF>
   <cc:Work rdf:about="">
    <dc:format>image/svg+xml</dc:format>
    <dc:type rdf:resource="http://purl.org/dc/dcmitype/StillImage"/>
    <dc:title/>
   </cc:Work>
  </rdf:RDF>
 </metadata>
 <g id="layer1" transform="translate(0 -1004.4)">
  <g id="g4347" transform="translate(0 1004.4)">
   <rect id="rect4203-1" ry="2" rx="2" transform="matrix(0,-1,-1,0,0,0)" height="40" width="40" y="-44" x="-44" fill="#7ec242"/>
   <path id="rect4592" opacity=".2" d="m6 4c-1.108 0-2 0.892-2 2v1c0-1.108 0.892-2 2-2h36c1.108 0 2 0.892 2 2v-1c0-1.108-0.892-2-2-2h-36z" fill="#fff"/>
   <path id="path4597" opacity=".3" d="m6 44c-1.108 0-2-0.892-2-2v-1c0 1.108 0.892 2 2 2h36c1.108 0 2-0.892 2-2v1c0 1.108-0.892 2-2 2h-36z"/>
   <path id="path4389" opacity=".2" style="color-rendering:auto;text-decoration-color:#000000;color:#000000;isolation:auto;mix-blend-mode:normal;shape-rendering:auto;solid-color:#000000;block-progression:tb;text-decoration-line:none;text-decoration-style:solid;image-rendering:auto;white-space:normal;text-indent:0;text-transform:none" d="m13.896 11.938a2.0002 2.0002 0 0 0 -1.3574 3.3652l8.7793 9.666-8.7793 9.666a2.0002 2.0002 0 1 0 2.961 2.69l8.5195-9.3809 8.5195 9.3809a2.0002 2.0002 0 1 0 2.961 -2.69l-8.779-9.666 8.779-9.666a2.0002 2.0002 0 0 0 -1.418 -3.3652 2.0002 2.0002 0 0 0 -1.543 0.67578l-8.519 9.381-8.52-9.381a2.0002 2.0002 0 0 0 -1.4043 -0.67578 2.0002 2.0002 0 0 0 -0.19922 0z" fill-rule="evenodd"/>
   <path id="path4375" stroke-linejoin="round" d="m14.019 12.957 20 22.022" stroke="#fff" stroke-linecap="round" stroke-width="4" fill="none"/>
   <path id="path4377" stroke-linejoin="round" d="m34.019 12.957-20 22.022" stroke="#fff" stroke-linecap="round" stroke-width="4" fill="none"/>
  </g>
 </g>
</svg>
